X:194
T:Double Trouble
C:Colin Hume, 1993
L:1/8
M:9/8
S:Colin Hume's website,  colinhume.com  - chords can also be printed below the stave.
Q:3/8=118
K:G
P:A
|: "G"d2d- d2G A2G | "C7"_B2B- B2G A2B | "G"=B2d e2d "E7/G#"e3 | "Am"e2g a2g "D7"a3 :|\
P:B
|: "G"g2d Bcd g3 | "F"=f2c ABc f3 | "C"e2c GAB "Am"c2A | "D7"d2A e2A f2A :|
P:C
|: "Em"g2B e2f g2e | "Bm"f3 d3 "G7"Bcd | "C"e2G c2d e3 | "B7"f2B ^d2e f3 :|\
P:D
|: "Em"e2B- B2e B3 | "Bm"d3 B3 D3 | "C"E2C- CDE "D7"FGA | "G"G6-G3 :|

